X: 22
T: Brenda Stubbert's
C: Jerry Holland
O: Cape Breton
R: reel
M: C|
L: 1/8
K: Am
|: "Am"A2BA GAAB  | A2BA edde | "G"G2BA BGGB | "C"c2BA "G"BGGB |
"Am"A2BA GAAB  | A2BA edda    | "Em"gedB "G"GABd  | "Em"e2dB "Am"eAA2 :|
G |: "Am"A2a2 A2g2 | Aage ageg | "G"G2BA BGGB | "C"c2BA "G"BGGB |
|1 "Am"A2a2 A2g2| Aage agea|"Em"gedB GABd| "G"e2dB "Am"eAAG :|
|2 "Am"A2BA GAAB  | A2BA edda    | "G"gedB GABd  | "Em"e2dB "Am"eAA2 |]
